custom-registration-form-builder-with-submission-manager/images/drag-icon.svg

<svg xmlns="http://www.w3.org/2000/svg" width="22" height="22" viewBox="0 0 20 20" style="fill: #0087be;"><path d="M2 11h16v2H2zm0-4h16v2H2zm8 11l3-3H7l3 3zm0-16L7 5h6l-3-3z"></path></svg>

<?xml version="1.0" encoding="UTF-8" standalone="no"?>
<!DOCTYPE svg PUBLIC "-//W3C//DTD SVG 1.1//EN" "http://www.w3.org/Graphics/SVG/1.1/DTD/svg11.dtd">
<svg width="100%" height="100%" viewBox="0 0 22 22" version="1.1" xmlns="http://www.w3.org/2000/svg" xmlns:xlink="http://www.w3.org/1999/xlink" xml:space="preserve" xmlns:serif="http://www.serif.com/" style="fill-rule:evenodd;clip-rule:evenodd;stroke-linejoin:round;stroke-miterlimit:2;">
    <g transform="matrix(1.1,0,0,1.1,0,0)">
        <path d="M2,11L18,11L18,13L2,13L2,11ZM2,7L18,7L18,9L2,9L2,7ZM10,18L13,15L7,15L10,18ZM10,2L7,5L13,5L10,2Z" style="fill:rgb(56,88,233);fill-rule:nonzero;"/>
    </g>
</svg>
